X:2989
T:Jenny Nettles. HSJJ.037
O:england
M:4/4
L:1/8
Q:200
S:HSJ Jackson,Wyresdale,Lancs.1823
R:Scots Measure
A:Lancashire
H:1823
K:G
B|c2B2A2a2|efge dBGB|c2B2A2a2|gegde2A:|
|:B|cdeA cdeA|d/c/B/A/ Bd BGdB|cdeA cdea|gegde2A:|
|:B|cdef gage|gage d/c/B/A/ GB|cdef gage|abaga2A:|]
